img/dark/virtual_machine_rosetta.svg

<svg height="16" viewBox="0 0 16 16" width="16" xmlns="http://www.w3.org/2000/svg">
  <g fill="#d6d6d6" fill-rule="evenodd">
    <path
      d="m13 2c1.1045695 0 2 .8954305 2 2v3.33182855c-.1788379-.21024314-.3700663-.44174696-.5736851-.69451146-.1204092-.14947131-.2636472-.21713378-.4251862-.23005055l-.0011287-2.40726654c0-.55228475-.4477153-1-1-1h-10c-.55228475 0-1 .44771525-1 1v6c0 .5522847.44771525 1 1 1h6.006l.00053451 2.6450549c0 .123269.01646122.2426933.04730536.3561946l-4.55383987-.0012495c-.27614237 0-.5-.2238576-.5-.5s.22385763-.5.5-.5h1.5v-1h-3c-1.1045695 0-2-.8954305-2-2v-6c0-1.1045695.8954305-2 2-2z" />
    <path
      d="m10.2980613 8.99443178 3.1247677-1.37954217c.2526186-.11152768.5478176.00284915.6593452.25546781.0204776.04638316.033781.09561117.039454.14599513l.1171489 1.04045308c.0051451.04569603.0192446.08993027.0414928.13017477l.6573152 1.1890137c.0409396.0740553.0624149.1572893.0624149.2419075v1.655855c0 .1455205-.0633972.2838208-.1736446.3788036l-1.4310495 1.23291c-.0907546.0781889-.2065644.1211965-.3263554.1211965h-2.5689505c-.2761424 0-.5-.2238577-.5-.5v-4.05482838c0-.19804279.1168891-.37742152.2980613-.45740654z"
      fill-opacity=".5" />
  </g>
</svg>

<?xml version="1.0" encoding="UTF-8"?>
<svg width="16px" height="16px" viewBox="0 0 16 16" version="1.1" xmlns="http://www.w3.org/2000/svg" xmlns:xlink="http://www.w3.org/1999/xlink">
    <title>virtual_machine_rosetta</title>
    <g id="virtual_machine_rosetta" stroke="none" stroke-width="1" fill="none" fill-rule="evenodd">
        <path d="M13,2 C14.1045695,2 15,2.8954305 15,4 L15,7.33182855 C14.8211621,7.12158541 14.6299337,6.89008159 14.4263149,6.63731709 C14.3059057,6.48784578 14.1626677,6.42018331 14.0011287,6.40726654 L14,4 C14,3.44771525 13.5522847,3 13,3 L3,3 C2.44771525,3 2,3.44771525 2,4 L2,10 C2,10.5522847 2.44771525,11 3,11 L9.006,11 L9.00653451,13.6450549 C9.00653451,13.7683239 9.02299573,13.8877482 9.05383987,14.0012495 L4.5,14 C4.22385763,14 4,13.7761424 4,13.5 C4,13.2238576 4.22385763,13 4.5,13 L6,13 L6,12 L3,12 C1.8954305,12 1,11.1045695 1,10 L1,4 C1,2.8954305 1.8954305,2 3,2 L13,2 Z" id="Combined-Shape" fill="#D6D6D6"></path>
        <path d="M10.2980613,8.99443178 L13.422829,7.61488961 C13.6754476,7.50336193 13.9706466,7.61773876 14.0821742,7.87035742 C14.1026518,7.91674058 14.1159552,7.96596859 14.1216282,8.01635255 L14.2387771,9.05680563 C14.2439222,9.10250166 14.2580217,9.1467359 14.2802699,9.1869804 L14.9375851,10.3759941 C14.9785247,10.4500494 15,10.5332834 15,10.6179016 L15,12.2737566 C15,12.4192771 14.9366028,12.5575774 14.8263554,12.6525602 L13.3953059,13.8854702 C13.3045513,13.9636591 13.1887415,14.0066667 13.0689505,14.0066667 L10.5,14.0066667 C10.2238576,14.0066667 10,13.782809 10,13.5066667 L10,9.45183832 C10,9.25379553 10.1168891,9.0744168 10.2980613,8.99443178 Z" id="Path-3" fill-opacity="0.5" fill="#FFFFFF"></path>
    </g>
</svg>
